devices/48/phone.svg

<?xml version="1.0" encoding="UTF-8" standalone="no"?>
<svg
   xmlns:dc="http://purl.org/dc/elements/1.1/"
   xmlns:cc="http://creativecommons.org/ns#"
   xmlns:rdf="http://www.w3.org/1999/02/22-rdf-syntax-ns#"
   xmlns:svg="http://www.w3.org/2000/svg"
   xmlns="http://www.w3.org/2000/svg"
   xmlns:xlink="http://www.w3.org/1999/xlink"
   width="48px"
   height="48px"
   viewBox="0 0 48 48"
   version="1.1"
   id="SVGRoot">
  <defs
     id="defs4265">
    <linearGradient
       id="linearGradient5067">
      <stop
         style="stop-color:#000000;stop-opacity:0.23921569"
         offset="0"
         id="stop5063" />
      <stop
         style="stop-color:#000000;stop-opacity:0.318"
         offset="1"
         id="stop5065" />
    </linearGradient>
    <linearGradient
       gradientTransform="matrix(0.6655121,0,0,0.4518781,-54.615029,45.875214)"
       gradientUnits="userSpaceOnUse"
       xlink:href="#linearGradient47870"
       id="linearGradient3421"
       y2="-5.5633383"
       x2="32.084972"
       y1="-14.402173"
       x1="32.084972" />
    <linearGradient
       id="linearGradient47870">
      <stop
         offset="0"
         style="stop-color:#000000;stop-opacity:0"
         id="stop47872" />
      <stop
         offset="0.5"
         style="stop-color:#000000;stop-opacity:1"
         id="stop47878" />
      <stop
         offset="1"
         style="stop-color:#000000;stop-opacity:0"
         id="stop47874" />
    </linearGradient>
    <radialGradient
       gradientTransform="matrix(1.8417267,-5.1455073e-7,6.2669991e-7,0.9200109,-115.2312,52.586443)"
       gradientUnits="userSpaceOnUse"
       xlink:href="#linearGradient51765"
       id="radialGradient3418"
       fy="-12.203125"
       fx="51.4375"
       r="2.171875"
       cy="-12.203125"
       cx="51.4375" />
    <linearGradient
       id="linearGradient51765">
      <stop
         offset="0"
         style="stop-color:#000000;stop-opacity:1"
         id="stop51767" />
      <stop
         offset="1"
         style="stop-color:#000000;stop-opacity:0"
         id="stop51769" />
    </linearGradient>
    <radialGradient
       gradientTransform="matrix(-1.8417267,-5.8450938e-8,-1.2125708e-7,0.9200109,52.236437,52.586419)"
       gradientUnits="userSpaceOnUse"
       xlink:href="#linearGradient51765"
       id="radialGradient4191"
       fy="-12.203125"
       fx="51.4375"
       r="2.171875"
       cy="-12.203125"
       cx="51.4375" />
    <linearGradient
       gradientTransform="translate(-8.32461e-8,2.9999999)"
       gradientUnits="userSpaceOnUse"
       xlink:href="#linearGradient3260"
       id="linearGradient3043"
       y2="39"
       x2="24"
       y1="37"
       x1="24" />
    <linearGradient
       id="linearGradient3260">
      <stop
         offset="0"
         style="stop-color:#3c3c3c;stop-opacity:1"
         id="stop3262" />
      <stop
         offset="1"
         style="stop-color:#505050;stop-opacity:1"
         id="stop3264" />
    </linearGradient>
    <linearGradient
       gradientTransform="matrix(0.7106859,0,0,0.9317046,6.8910672,-0.8074935)"
       gradientUnits="userSpaceOnUse"
       xlink:href="#linearGradient3600"
       id="linearGradient3054"
       y2="48.136791"
       x2="25.132275"
       y1="2.9111307"
       x1="25.132275" />
    <linearGradient
       id="linearGradient3600">
      <stop
         offset="0"
         style="stop-color:#f4f4f4;stop-opacity:1"
         id="stop3602" />
      <stop
         offset="1"
         style="stop-color:#dbdbdb;stop-opacity:1"
         id="stop3604" />
    </linearGradient>
    <linearGradient
       xlink:href="#outerBackgroundGradient-5-0"
       id="linearGradient4020"
       gradientUnits="userSpaceOnUse"
       gradientTransform="matrix(0.5500001,0,0,1.3043479,12.449999,18.434783)"
       x1="15"
       y1="24.618645"
       x2="15"
       y2="2" />
    <linearGradient
       id="outerBackgroundGradient-5-0">
      <stop
         id="stop3864-8-6-4"
         offset="0"
         style="stop-color:#261e2b;stop-opacity:1;" />
      <stop
         id="stop3866-9-1-86"
         offset="1"
         style="stop-color:#352f39;stop-opacity:1;" />
    </linearGradient>
    <linearGradient
       gradientTransform="matrix(0.60000006,0,0,2.2777778,11.399998,20.22222)"
       gradientUnits="userSpaceOnUse"
       y2="12"
       x2="20"
       y1="-3"
       x1="10"
       id="linearGradient3887"
       xlink:href="#linearGradient3208" />
    <linearGradient
       id="linearGradient3208">
      <stop
         offset="0"
         style="stop-color:#ffffff;stop-opacity:1"
         id="stop3210" />
      <stop
         offset="1"
         style="stop-color:#ffffff;stop-opacity:0"
         id="stop3212" />
    </linearGradient>
    <linearGradient
       y2="42.075356"
       x2="23.99999"
       y1="5.8890719"
       x1="23.99999"
       gradientTransform="matrix(0.62162171,0,0,1.108108,9.081075,-3.5945821)"
       gradientUnits="userSpaceOnUse"
       id="linearGradient3916"
       xlink:href="#linearGradient4630" />
    <linearGradient
       id="linearGradient4630">
      <stop
         offset="0"
         style="stop-color:#ffffff;stop-opacity:1"
         id="stop4622" />
      <stop
         offset="0.02195775"
         style="stop-color:#ffffff;stop-opacity:0.23529412"
         id="stop4624" />
      <stop
         offset="0.98004687"
         style="stop-color:#ffffff;stop-opacity:0.15686275"
         id="stop4626" />
      <stop
         offset="1"
         style="stop-color:#ffffff;stop-opacity:0.39215687"
         id="stop4628" />
    </linearGradient>
    <linearGradient
       xlink:href="#linearGradient5067"
       id="linearGradient5069"
       x1="27.074766"
       y1="1.0934579"
       x2="27.074766"
       y2="44.831776"
       gradientUnits="userSpaceOnUse" />
  </defs>
  <metadata
     id="metadata4268">
    <rdf:RDF>
      <cc:Work
         rdf:about="">
        <dc:format>image/svg+xml</dc:format>
        <dc:type
           rdf:resource="http://purl.org/dc/dcmitype/StillImage" />
        <dc:title />
      </cc:Work>
    </rdf:RDF>
  </metadata>
  <g
     id="layer1">
    <g
       transform="matrix(0.9333333,0,0,1.2500002,53.397557,-8.201581)"
       id="g3423">
      <rect
         width="22"
         height="3.9940758"
         x="-42.497383"
         y="39.367184"
         id="rect46899"
         style="opacity:0.3;fill:url(#linearGradient3421);fill-opacity:1;fill-rule:evenodd;stroke:none" />
      <path
         d="m -20.497383,39.36126 v 3.996297 c 2.205021,-0.01509 4,-0.897792 4,-1.991088 0,-1.093295 -1.794978,-1.990122 -4,-2.005209 z"
         id="path48849"
         style="opacity:0.3;fill:url(#radialGradient3418);fill-opacity:1;fill-rule:evenodd;stroke:none" />
      <path
         d="m -42.497383,39.36126 v 3.996297 c -2.205021,-0.01509 -4,-0.897792 -4,-1.991088 0,-1.093295 1.794978,-1.990122 4,-2.005209 z"
         id="path52742"
         style="opacity:0.3;fill:url(#radialGradient4191);fill-opacity:1;fill-rule:evenodd;stroke:none" />
    </g>
    <rect
       width="2"
       height="2"
       x="23"
       y="40"
       id="rect3258"
       style="display:inline;overflow:visible;visibility:visible;fill:url(#linearGradient3043);fill-opacity:1;fill-rule:nonzero;stroke:none;stroke-width:0.99992174;marker:none;enable-background:accumulate" />
    <rect
       width="24"
       height="41.99976"
       rx="1.5"
       ry="1.5"
       x="12"
       y="2.0002403"
       id="rect2722-7-3"
       style="opacity:1;fill:url(#linearGradient3054);fill-opacity:1;stroke:none;stroke-width:0.99999994;stroke-linecap:butt;stroke-linejoin:miter;stroke-miterlimit:4;stroke-dasharray:none;stroke-dashoffset:0;stroke-opacity:1" />
    <path
       style="display:inline;overflow:visible;visibility:visible;fill:#333333;fill-opacity:1;fill-rule:nonzero;stroke:none;stroke-width:0.99992174;marker:none;enable-background:accumulate"
       d="M 19.5,5 A 0.5,0.5 0 0 0 19,5.5 0.5,0.5 0 0 0 19.5,6 0.5,0.5 0 0 0 20,5.5 0.5,0.5 0 0 0 19.5,5 Z M 21,5 v 1 h 6 V 5 Z"
       id="rect3233" />
    <path
       style="display:inline;fill:url(#linearGradient4020);fill-opacity:1;stroke:none;stroke-width:0.99999994"
       d="M 13,8.0000005 H 35 V 38.000002 H 13 Z"
       id="rect2722-0" />
    <path
       style="display:inline;opacity:0.2;fill:#000000;fill-opacity:1;stroke:none"
       d="M 13,8 V 38 H 35 V 8 Z m 1,1 H 34 V 37 H 14 Z"
       id="path3942" />
    <path
       style="display:inline;opacity:0.2;fill:url(#linearGradient3887);fill-opacity:1;stroke:none;stroke-width:0.99999988"
       d="M 13.5,2 C 12.669,2 12,2.669 12,3.5 v 39 c 0,0.146429 0.02764,0.284373 0.06641,0.417969 L 36,13.103516 V 3.5 C 36,2.669 35.331,2 34.5,2 Z"
       id="rect3872" />
    <rect
       width="23"
       height="41"
       rx="1"
       ry="1"
       x="12.5"
       y="2.5"
       id="rect6741"
       style="opacity:1;fill:none;stroke:url(#linearGradient3916);stroke-width:0.99999994;stroke-linecap:round;stroke-linejoin:round;stroke-miterlimit:4;stroke-dasharray:none;stroke-dashoffset:0;stroke-opacity:1" />
    <rect
       width="25"
       height="43"
       rx="2"
       ry="2"
       x="11.5"
       y="1.5"
       id="rect2722-7-3-2"
       style="opacity:1;fill:none;fill-opacity:1;stroke:url(#linearGradient5069);stroke-width:0.99999994;stroke-linecap:butt;stroke-linejoin:miter;stroke-miterlimit:4;stroke-dasharray:none;stroke-dashoffset:0;stroke-opacity:1" />
    <path
       style="display:inline;opacity:0.5;fill:#ffffff;fill-opacity:1;stroke:none"
       d="m 13,38 v 1 h 22 v -1 z"
       id="path3942-6" />
    <circle
       style="color:#000000;clip-rule:nonzero;display:inline;overflow:visible;visibility:visible;opacity:0.5;isolation:auto;mix-blend-mode:normal;color-interpolation:sRGB;color-interpolation-filters:linearRGB;solid-color:#000000;solid-opacity:1;fill:none;fill-opacity:1;fill-rule:nonzero;stroke:#9b946d;stroke-width:1;stroke-linecap:butt;stroke-linejoin:miter;stroke-miterlimit:4;stroke-dasharray:none;stroke-dashoffset:0;stroke-opacity:1;marker:none;color-rendering:auto;image-rendering:auto;shape-rendering:auto;text-rendering:auto;enable-background:accumulate"
       id="path4649"
       cx="24"
       cy="41"
       r="1.5" />
    <path
       style="display:inline;overflow:visible;visibility:visible;opacity:0.7;fill:#ffffff;fill-opacity:1;fill-rule:nonzero;stroke:none;stroke-width:1;stroke-linecap:butt;stroke-linejoin:miter;stroke-miterlimit:4;stroke-dasharray:none;stroke-dashoffset:0;stroke-opacity:1;marker:none;enable-background:accumulate"
       d="M 19.5,6 A 0.5,0.5 0 0 0 19,6.5 0.5,0.5 0 0 0 19.5,7 0.5,0.5 0 0 0 20,6.5 0.5,0.5 0 0 0 19.5,6 Z M 21,6 v 1 h 6 V 6 Z"
       id="rect3233-2" />
  </g>
</svg>

<svg xmlns="http://www.w3.org/2000/svg" xmlns:xlink="http://www.w3.org/1999/xlink" viewBox="0 0 48 48"><defs><linearGradient id="h"><stop offset="0" stop-opacity=".239"/><stop offset="1" stop-opacity=".318"/></linearGradient><linearGradient gradientTransform="matrix(.6655 0 0 .45188 -54.615 45.875)" gradientUnits="userSpaceOnUse" xlink:href="#a" id="i" y2="-5.563" x2="32.085" y1="-14.402" x1="32.085"/><linearGradient id="a"><stop offset="0" stop-opacity="0"/><stop offset=".5"/><stop offset="1" stop-opacity="0"/></linearGradient><radialGradient gradientTransform="matrix(1.84173 0 0 .92 -115.23 52.586)" gradientUnits="userSpaceOnUse" xlink:href="#b" id="j" fy="-12.203" fx="51.438" r="2.172" cy="-12.203" cx="51.438"/><linearGradient id="b"><stop offset="0"/><stop offset="1" stop-opacity="0"/></linearGradient><radialGradient gradientTransform="matrix(-1.84173 0 0 .92 52.236 52.586)" gradientUnits="userSpaceOnUse" xlink:href="#b" id="k" fy="-12.203" fx="51.438" r="2.172" cy="-12.203" cx="51.438"/><linearGradient gradientTransform="translate(0 3)" gradientUnits="userSpaceOnUse" xlink:href="#c" id="l" y2="39" x2="24" y1="37" x1="24"/><linearGradient id="c"><stop offset="0" stop-color="#3c3c3c"/><stop offset="1" stop-color="#505050"/></linearGradient><linearGradient gradientTransform="matrix(.7107 0 0 .9317 6.89 -.807)" gradientUnits="userSpaceOnUse" xlink:href="#d" id="m" y2="48.137" x2="25.132" y1="2.911" x1="25.132"/><linearGradient id="d"><stop offset="0" stop-color="#f4f4f4"/><stop offset="1" stop-color="#dbdbdb"/></linearGradient><linearGradient xlink:href="#e" id="n" gradientUnits="userSpaceOnUse" gradientTransform="matrix(.55 0 0 1.30435 12.45 18.435)" x1="15" y1="24.619" x2="15" y2="2"/><linearGradient id="e"><stop offset="0" stop-color="#261e2b"/><stop offset="1" stop-color="#352f39"/></linearGradient><linearGradient gradientTransform="matrix(.6 0 0 2.27778 11.4 20.222)" gradientUnits="userSpaceOnUse" y2="12" x2="20" y1="-3" x1="10" id="o" xlink:href="#f"/><linearGradient id="f"><stop offset="0" stop-color="#fff"/><stop offset="1" stop-color="#fff" stop-opacity="0"/></linearGradient><linearGradient y2="42.075" x2="24" y1="5.889" x1="24" gradientTransform="matrix(.62162 0 0 1.1081 9.08 -3.595)" gradientUnits="userSpaceOnUse" id="p" xlink:href="#g"/><linearGradient id="g"><stop offset="0" stop-color="#fff"/><stop offset=".022" stop-color="#fff" stop-opacity=".235"/><stop offset=".98" stop-color="#fff" stop-opacity=".157"/><stop offset="1" stop-color="#fff" stop-opacity=".392"/></linearGradient><linearGradient xlink:href="#h" id="q" x1="27.075" y1="1.093" x2="27.075" y2="44.832" gradientUnits="userSpaceOnUse"/></defs><g fill-rule="evenodd"><path opacity=".3" fill="url(#i)" d="M-42.497 39.367h22v3.994h-22z" transform="matrix(.93333 0 0 1.25 53.398 -8.202)"/><path d="M-20.497 39.36v3.998c2.205-.016 4-.898 4-1.992 0-1.093-1.795-1.99-4-2.005z" opacity=".3" fill="url(#j)" transform="matrix(.93333 0 0 1.25 53.398 -8.202)"/><path d="M-42.497 39.36v3.998c-2.205-.016-4-.898-4-1.992 0-1.093 1.795-1.99 4-2.005z" opacity=".3" fill="url(#k)" transform="matrix(.93333 0 0 1.25 53.398 -8.202)"/></g><path overflow="visible" fill="url(#l)" d="M23 40h2v2h-2z"/><rect width="24" height="42" rx="1.5" ry="1.5" x="12" y="2" fill="url(#m)"/><path d="M19.5 5a.5.5 0 0 0-.5.5.5.5 0 0 0 .5.5.5.5 0 0 0 .5-.5.5.5 0 0 0-.5-.5zM21 5v1h6V5z" overflow="visible" fill="#333"/><path d="M13 8h22v30H13z" fill="url(#n)"/><path d="M13 8v30h22V8zm1 1h20v28H14z" opacity=".2"/><path d="M13.5 2c-.83 0-1.5.67-1.5 1.5v39c0 .146.028.284.066.418L36 13.104V3.5c0-.83-.67-1.5-1.5-1.5z" opacity=".2" fill="url(#o)"/><rect width="23" height="41" rx="1" ry="1" x="12.5" y="2.5" fill="none" stroke="url(#p)" stroke-linecap="round" stroke-linejoin="round"/><rect width="25" height="43" rx="2" ry="2" x="11.5" y="1.5" fill="none" stroke="url(#q)"/><path d="M13 38v1h22v-1z" opacity=".5" fill="#fff"/><circle style="isolation:auto;mix-blend-mode:normal" cx="24" cy="41" r="1.5" color="#000" overflow="visible" opacity=".5" fill="none" stroke="#9b946d"/><path d="M19.5 6a.5.5 0 0 0-.5.5.5.5 0 0 0 .5.5.5.5 0 0 0 .5-.5.5.5 0 0 0-.5-.5zM21 6v1h6V6z" overflow="visible" opacity=".7" fill="#fff"/></svg>
